src/lib/packages/icons/src/assets/filled/target.svg

<svg width="24" height="24" viewBox="0 0 24 24" fill="none" xmlns="http://www.w3.org/2000/svg">
<path d="M11 17.9999C8.243 17.9999 6 15.7569 6 12.9999C6 10.7119 7.54403 8.72278 9.75403 8.16078C10.281 8.02678 10.833 8.34793 10.969 8.88393C11.106 9.41993 10.781 9.96399 10.246 10.1C8.92397 10.436 8 11.6289 8 13.0009C8 14.6549 9.346 16.0009 11 16.0009C12.371 16.0009 13.564 15.0768 13.901 13.7538C14.037 13.2178 14.582 12.8939 15.117 13.0309C15.652 13.1669 15.975 13.712 15.839 14.247C15.276 16.457 13.287 17.9999 11 17.9999ZM20 12.9999C20 12.7819 19.988 12.5648 19.963 12.3468C19.901 11.7988 19.423 11.3989 18.857 11.4669C18.308 11.5289 17.915 12.0249 17.977 12.5739C17.993 12.7159 18 12.8579 18 13.0009C18 16.8609 14.859 20.0009 11 20.0009C7.141 20.0009 4 16.8609 4 13.0009C4 9.14087 7.141 6.00087 11 6.00087C11.143 6.00087 11.286 6.00882 11.43 6.02382C11.973 6.09182 12.473 5.69101 12.534 5.14101C12.595 4.59201 12.199 4.098 11.65 4.037C11.434 4.013 11.216 4.00087 11 4.00087C6.037 4.00087 2 8.03887 2 13.0009C2 17.9629 6.037 22.0009 11 22.0009C15.963 22.0009 20 17.9619 20 12.9999ZM21.462 6.80898C21.385 6.62198 21.202 6.49989 21 6.49989H17.5V2.99989C17.5 2.79789 17.378 2.61498 17.191 2.53798C17.005 2.45998 16.79 2.50289 16.646 2.64589L14.085 5.20693C13.713 5.57893 13.499 6.09499 13.499 6.62099V9.08583L10.292 12.2929C9.90099 12.6839 9.90099 13.3159 10.292 13.7069C10.487 13.9019 10.743 13.9999 10.999 13.9999C11.255 13.9999 11.511 13.9019 11.706 13.7069L14.913 10.4999H17.378C17.904 10.4999 18.42 10.287 18.792 9.91396L21.353 7.35292C21.496 7.20992 21.539 6.99598 21.462 6.80898Z" fill="currentColor"/>
</svg>

<svg xmlns="http://www.w3.org/2000/svg" width="24" height="24" fill="none"><path fill="currentColor" d="M11 18c-2.757 0-5-2.243-5-5a4.985 4.985 0 0 1 3.754-4.84 1 1 0 1 1 .492 1.94A2.986 2.986 0 0 0 8 13c0 1.655 1.346 3 3 3a2.988 2.988 0 0 0 2.901-2.246 1 1 0 1 1 1.938.493A4.985 4.985 0 0 1 11 18Zm9-5a5.72 5.72 0 0 0-.037-.653.986.986 0 0 0-1.106-.88 1 1 0 0 0-.88 1.107c.016.142.023.284.023.427 0 3.86-3.141 7-7 7s-7-3.14-7-7 3.141-7 7-7c.143 0 .286.008.43.023a1 1 0 1 0 .22-1.987 5.9 5.9 0 0 0-.65-.036c-4.963 0-9 4.038-9 9s4.037 9 9 9 9-4.04 9-9.001Zm1.462-6.191a.5.5 0 0 0-.462-.31h-3.5V3a.5.5 0 0 0-.854-.353l-2.561 2.56a2.015 2.015 0 0 0-.586 1.415v2.465l-3.207 3.207a.999.999 0 1 0 1.414 1.414l3.207-3.207h2.465a2.01 2.01 0 0 0 1.414-.586l2.561-2.561a.5.5 0 0 0 .109-.544Z"/></svg>
